X:678
T:Planxty Toby Peyton
C:O'Carolan
B:O'Neill's 678
Z: 1997 by John Chambers <jc@trillian.mit.edu>
N:"Lively"
N:"1st Setting"
M:6/8
L:1/8
K:Am
e \
|e/d/c/B/A/G/ ABA|GEF G2d|BGB ded|eag f2d|
|efg afa|bgb afa|.ga/g/f/e/ .dc/B/A/G/|EA.A EA.A|
|cBAB GAB|gBA GAB|eAB GEG|GAA A2||
||G\
|.GA/G/F/E/ DB,G,|EA.A EA.A|Bd.d e/d/c/B/A/G/|Bee e2e/f/|
|gBG gBG|Aaa ab/a/g/f/|.ga/g/f/e/ .fg/f/e/d/|Bee e2e/f/|
|gBG GAB|gBG GAB|eAB GEG|GAA A2|]
